X:722
T:The lark on the strand 3
T:An Fhuiseog ar an Trá
T:The stolen purse
R:Jig
O:Ireland
B:Ceol Rince 1 n7
S:Ceol Rince 1 n7
Z:Transcription, chords:Mike Long
M:6/8
L:1/8
K:G
"Am"ABA AGA|"G"BGE G3|"Am"ABA GBd|"Em"egd edB|\
"Am"ABA AGA|"G"BGE G3|GBA G2B|dBG BdB:|
|:"G"GBd {a}gfg|gba gdB|GBd gfg|"C"egd "D"edB|\
"G"GBd gfg|gba g3|"C"abg age|"D"egd edB:|
